svg/fluentui-system-icons/ic_fluent_border_bottom_double_24_regular.svg

<svg width="24" height="24" viewBox="0 0 24 24" fill="none" xmlns="http://www.w3.org/2000/svg">
<path d="M13.25 4.5C13.6642 4.5 14 4.16421 14 3.75C14 3.33579 13.6642 3 13.25 3H10.75C10.3358 3 10 3.33579 10 3.75C10 4.16421 10.3358 4.5 10.75 4.5L13.25 4.5ZM3.75 10C4.16421 10 4.5 10.3358 4.5 10.75V13.25C4.5 13.6642 4.16421 14 3.75 14C3.33579 14 3 13.6642 3 13.25V10.75C3 10.3358 3.33579 10 3.75 10ZM20.25 10C19.8358 10 19.5 10.3358 19.5 10.75V13.25C19.5 13.6642 19.8358 14 20.25 14C20.6642 14 21 13.6642 21 13.25V10.75C21 10.3358 20.6642 10 20.25 10ZM3.75 21C3.33579 21 3 20.6642 3 20.25C3 19.8358 3.33579 19.5 3.75 19.5H20.25C20.6642 19.5 21 19.8358 21 20.25C21 20.6642 20.6642 21 20.25 21H3.75ZM3 17.75C3 18.1642 3.33579 18.5 3.75 18.5H20.25C20.6642 18.5 21 18.1642 21 17.75C21 17.3358 20.6642 17 20.25 17H3.75C3.33579 17 3 17.3358 3 17.75ZM7 3.75C7 3.33579 6.66421 3 6.25 3H5.75C4.23122 3 3 4.23122 3 5.75V6.25C3 6.66421 3.33579 7 3.75 7C4.16421 7 4.5 6.66421 4.5 6.25V5.75C4.5 5.05964 5.05964 4.5 5.75 4.5H6.25C6.66421 4.5 7 4.16421 7 3.75ZM17.75 3C17.3358 3 17 3.33579 17 3.75C17 4.16421 17.3358 4.5 17.75 4.5H18.25C18.9404 4.5 19.5 5.05964 19.5 5.75V6.25C19.5 6.66421 19.8358 7 20.25 7C20.6642 7 21 6.66421 21 6.25V5.75C21 4.23122 19.7688 3 18.25 3H17.75Z" fill="#212121"/>
</svg>

<svg xmlns="http://www.w3.org/2000/svg" width="24" height="24"><path d="M13.25 4.5a.75.75 0 0 0 0-1.5h-2.5a.75.75 0 0 0 0 1.5h2.5ZM3.75 10a.75.75 0 0 1 .75.75v2.5a.75.75 0 0 1-1.5 0v-2.5a.75.75 0 0 1 .75-.75Zm16.5 0a.75.75 0 0 0-.75.75v2.5a.75.75 0 0 0 1.5 0v-2.5a.75.75 0 0 0-.75-.75ZM3.75 21a.75.75 0 0 1 0-1.5h16.5a.75.75 0 0 1 0 1.5H3.75ZM3 17.75c0 .414.336.75.75.75h16.5a.75.75 0 0 0 0-1.5H3.75a.75.75 0 0 0-.75.75Zm4-14A.75.75 0 0 0 6.25 3h-.5A2.75 2.75 0 0 0 3 5.75v.5a.75.75 0 0 0 1.5 0v-.5c0-.69.56-1.25 1.25-1.25h.5A.75.75 0 0 0 7 3.75ZM17.75 3a.75.75 0 0 0 0 1.5h.5c.69 0 1.25.56 1.25 1.25v.5a.75.75 0 0 0 1.5 0v-.5A2.75 2.75 0 0 0 18.25 3h-.5Z"/></svg>
